X:1
T:Savile, 10.10.10.10
T:Savile, 10.10.10.10
T:Charles Harford Lloyd, 1904
T:Public Domain Courtesy of the Cyber Hymnal™
C:Charles Harford Lloyd, 1904
Z:Public Domain
Z:Courtesy of the Cyber Hymnal™
%%score ( 1 2 ) ( 3 4 )
L:1/8
Q:1/4=110
M:4/4
K:D
V:1 treble 
V:2 treble 
V:3 bass 
V:4 bass 
V:1
 [FB]2 | [FA]2 [FB]2 [EA]2 [EG]2 | [CF]3 [CE] [B,D]2 E2 | [CF]6 [Fd]2 | [Ec]2 [Dd]2 [GB]2 [FA]2 | %5
 [EA]3 [EG] [DF]2 [CE]2 | [DF]6 [EF]2 | [^DF]2 [EF]2 [FB]2 [DA]2 | [EG]3 G [GA]2 [F=c]2 | %9
 [GB]6 [EB]2 | [Fd]2 [Ec]2 [DB]2 [FA]2 | [EG]2 [EB]2 [FB]3 [F^A] | [FB]6 |] %13
V:2
 x2 | x8 | x6 E2 | x8 | x8 | x8 | x8 | x8 | x3 G x4 | x8 | x8 | x8 | x6 |] %13
V:3
 [B,,D]2 | [F,C]2 [D,B,]2 [E,B,]2 [E,B,]2 | [F,^A,]3 [F,A,] [G,B,]2 [G,B,]2 | [F,^A,]6 [D,=A,]2 | %4
 A,2 [F,A,]2 [G,D]2 [^D,=C]2 | [E,B,]3 [G,B,] A,2 [A,,A,]2 | [D,A,]6 [=C,A,]2 | %7
 [B,,B,]2 [C,B,]2 [^D,F,]2 [F,B,]2 | [E,B,]3 [^D,B,] [=C,E]2 [D,^D]2 | [G,D]6 [G,B,]2 | %10
 [F,^A,]2 [F,A,]2 [G,B,]2 [D,=C]2 | [E,B,]2 [G,B,]2 [F,C]3 [F,C] | [B,,D]6 |] %13
V:4
 x2 | x8 | x8 | x8 | A,2 x6 | x4 A,2 x2 | x8 | x8 | x8 | x8 | x8 | x8 | x6 |] %13

